!!!OTL: DER ZAUN DER WIRD GEFLOCHTEN
!!!ARE: Europa, Mitteleuropa, Deutschland, Sachsen, Leipzig; Dresden
!!!SCT: E1878
!!!YEM: Copyright 1995, estate of Helmut Schaffrath.
**kern
*ICvox
*Ivox
*M2/4
*k[f#]
*G:
{8d
=1
8g
8a
8b
8ee
=2
4dd
8b}
{8dd
=3
8cc
8cc
8a
8cc
=4
8b
16b
16a
8g}
{8d
=5
8g
8a
8b
8ee
=6
4dd
8b}
{8dd
=7
8cc
8cc
8a
8dd
=8
4g
8r}
==
!!!AGN: Kinder - Lied, Tanz, Reigen
!!!ONB: ESAC (Essen Associative Code) Database: ERK3
!!!AMT: simple duple
!!!AIN: vox
!!!EED: Helmut Schaffrath
!!!EEV: 1.0
*-
